symbols/web/policy/materialsymbolsoutlined/policy_wght100grad200_40px.svg

<svg xmlns="http://www.w3.org/2000/svg" height="40" width="40"><path d="M20 23.458q1.417 0 2.438-1.02 1.02-1.021 1.02-2.48 0-1.416-1.041-2.437Q21.375 16.5 20 16.5q-1.417 0-2.438 1.042-1.02 1.041-1.02 2.416 0 1.459 1.041 2.48 1.042 1.02 2.417 1.02Zm0 10.125q2.083-.583 4.062-2.166 1.98-1.584 3.063-3.292l-4.042-4q-.666.5-1.458.771-.792.271-1.625.271-2.167 0-3.688-1.521-1.52-1.521-1.52-3.688 0-2.125 1.52-3.646 1.521-1.52 3.688-1.52 2.125 0 3.667 1.52 1.541 1.521 1.541 3.646 0 .834-.27 1.584-.271.75-.646 1.375l3.75 3.75q1-1.875 1.625-3.875t.625-4.334v-8.083L20 6.583 9.708 10.375v8.083q0 5.125 2.917 9.375T20 33.583Zm0 1.792q-5.125-1.5-8.562-6.229Q8 24.417 8 18.458V9.25l12-4.542L32 9.25v9.167q0 6-3.438 10.729-3.437 4.729-8.562 6.229Zm.292-15.333Z"/></svg>

<svg xmlns="http://www.w3.org/2000/svg" height="40" width="40"><path d="M20 23.458Q21.417 23.458 22.438 22.438Q23.458 21.417 23.458 19.958Q23.458 18.542 22.417 17.521Q21.375 16.5 20 16.5Q18.583 16.5 17.562 17.542Q16.542 18.583 16.542 19.958Q16.542 21.417 17.583 22.438Q18.625 23.458 20 23.458ZM20 33.583Q22.083 33 24.062 31.417Q26.042 29.833 27.125 28.125L23.083 24.125Q22.417 24.625 21.625 24.896Q20.833 25.167 20 25.167Q17.833 25.167 16.312 23.646Q14.792 22.125 14.792 19.958Q14.792 17.833 16.312 16.312Q17.833 14.792 20 14.792Q22.125 14.792 23.667 16.312Q25.208 17.833 25.208 19.958Q25.208 20.792 24.938 21.542Q24.667 22.292 24.292 22.917L28.042 26.667Q29.042 24.792 29.667 22.792Q30.292 20.792 30.292 18.458V10.375L20 6.583L9.708 10.375V18.458Q9.708 23.583 12.625 27.833Q15.542 32.083 20 33.583ZM20 35.375Q14.875 33.875 11.438 29.146Q8 24.417 8 18.458V9.25L20 4.708L32 9.25V18.417Q32 24.417 28.562 29.146Q25.125 33.875 20 35.375ZM20.292 20.042Q20.292 20.042 20.292 20.042Q20.292 20.042 20.292 20.042Q20.292 20.042 20.292 20.042Q20.292 20.042 20.292 20.042Q20.292 20.042 20.292 20.042Q20.292 20.042 20.292 20.042Q20.292 20.042 20.292 20.042Q20.292 20.042 20.292 20.042Z"/></svg>
